X: 49091
T: the Centenary Square
C: Chris Dewhurst
R: strathspey
B: RSCDS 49-9
Z: 2015 by John Chambers <jc:trillian.mit.edu>
N: Tune for the dance The Library of Birmingham
M: 4/4
L: 1/8
K: D
G>E |\
"G"D2 (3GAB "Am7"A>G E<G | "B/G"D2 G>A "G7"B>A B<d |\
"C"e2- (3edc "Bm7"d2- (3dcB | "Cm7"(3cBA B>G "D/Am7"A>G E<G |
%
"G"D2 (3GAB "Am7"A>G E<G | "B/G"D2 G>A "G7"B>A B<d |\
"C"e2- (3edc "Bm7"d2- (3dcB | "Am7"c>A B>G "D"(3ABc "Bm7"(3def ||
|:\
"Em"g2- g>a "B/Em"g>f (3efg | "Bm"f2- f>g "Bm7"f>d "G7"(3Bcd |\
"C"e2- (3edc "Bm7"d2- (3dcB | "Am7"c>A B>G "D"(3ABc "Bm7"(3def |
%
"Em"g2- g>a "B/Em"g>f (3efg | "Bm"f2- f>g "Bm7"f>d "G7"(3Bcd |\
"C"e2- (3edc "Bm7"d2- (3dcB | "Am7"(3cBA B>G "D"A>G "C"E<G ||
%
"G"D2 (3GAB "Am7"A>G E<G | "B/G"D2 G>A "G7"B>A B<d |\
"C"e2- (3edc "Bm7"d2- (3dcB | "Cm7"(3cBA B>G "D/Am7"A>G E<G |
%
"G"D2 (3GAB "Am7"A>G E<G | "B/G"D2 G>A "G7"B>A B<d |\
"C"e2- (3edc "Bm7"d2- (3dcB |[1 "Am7"c>A B>G "D"(3ABc "Bm7"(3def :|\
[2 "Am7"c>A "D7"F<D "G"G2 |]
